X: 4312
T: HAPPY AND LIGHT. (Bohemian Girl.)
%R: air, waltz, jig
B: James Kerr "Merry Melodies" v.4 p.33 #312
Z: 2016 John Chambers <jc:trillian.mit.edu>
M: 6/8
L: 1/8
K: D
|:\
ABc d2e | f2c e2d | c2B A2B | A2E A3 |\
ABc d2e | f2c e2d | c2B A2G | F2E D3 H:|\
f3 fed | c3- c2c | B2^A B2e | (e3 A2)z |\
c3- cBA | ^G3- GAB | c2B A2^G | F2z "_D.C."A3 |]

%%sep 1 1 500
%%sep 1 1 500

